wp-expand-tabs-free/admin/img/tabs-layout/vertical-left.svg

<svg width="120" height="92" viewBox="0 0 120 92" fill="none" xmlns="http://www.w3.org/2000/svg">
<rect x="1" y="1" width="118" height="90" rx="3" fill="white"/>
<path d="M38 32V31H37H22C21.5003 31 21.2262 30.9979 21.036 30.9723C21.0335 30.972 21.0311 30.9716 21.0287 30.9713C21.0284 30.9689 21.028 30.9665 21.0277 30.964C21.0021 30.7738 21 30.4997 21 30V18C21 17.5003 21.0021 17.2262 21.0277 17.036C21.028 17.0335 21.0284 17.0311 21.0287 17.0287C21.0311 17.0284 21.0335 17.028 21.036 17.0277C21.2262 17.0021 21.5003 17 22 17H98C98.4997 17 98.7738 17.0021 98.964 17.0277C98.9665 17.028 98.9689 17.0284 98.9713 17.0287C98.9716 17.0311 98.972 17.0335 98.9723 17.036C98.9979 17.2262 99 17.5003 99 18V74C99 74.4997 98.9979 74.7738 98.9723 74.964C98.972 74.9665 98.9716 74.9689 98.9713 74.9713C98.9689 74.9716 98.9665 74.972 98.964 74.9723C98.7738 74.9979 98.4997 75 98 75H39C38.5003 75 38.2262 74.9979 38.036 74.9723C38.0335 74.972 38.0311 74.9716 38.0287 74.9713C38.0284 74.9689 38.028 74.9665 38.0277 74.964C38.0021 74.7738 38 74.4997 38 74L38 32Z" fill="white" stroke="#8796A1" stroke-width="2"/>
<path d="M22 50C21.0572 50 20.5858 50 20.2929 49.7071C20 49.4142 20 48.9428 20 48L20 38C20 37.0572 20 36.5858 20.2929 36.2929C20.5858 36 21.0572 36 22 36L37 36C37.9428 36 38.4142 36 38.7071 36.2929C39 36.5858 39 37.0572 39 38V48C39 48.9428 39 49.4142 38.7071 49.7071C38.4142 50 37.9428 50 37 50L22 50Z" fill="#8796A1"/>
<path d="M22 68C21.0572 68 20.5858 68 20.2929 67.7071C20 67.4142 20 66.9428 20 66L20 56C20 55.0572 20 54.5858 20.2929 54.2929C20.5858 54 21.0572 54 22 54L37 54C37.9428 54 38.4142 54 38.7071 54.2929C39 54.5858 39 55.0572 39 56V66C39 66.9428 39 67.4142 38.7071 67.7071C38.4142 68 37.9428 68 37 68L22 68Z" fill="#8796A1"/>
<rect x="1" y="1" width="118" height="90" rx="3" stroke="#CCCCCC" stroke-width="2"/>
</svg>

<svg xmlns="http://www.w3.org/2000/svg" width="120" height="92" fill="none"><g fill="#fff"><rect x="1" y="1" width="118" height="90" rx="3"/><path d="M38 32v-1h-1-15c-.5 0-.774-.002-.964-.028C21.002 30.774 21 30.5 21 30V18l.028-.964c.198-.034.473-.036.972-.036h77l.964.028c.034.198.036.473.036.972v57l-.028.964c-.199.034-.473.036-.972.036H39c-.5 0-.774-.002-.964-.028C38.002 75.774 38 75.5 38 75V32z" stroke="#8796a1" stroke-width="2"/></g><path d="M22 50c-.943 0-1.414 0-1.707-.293S20 48.943 20 48V38c0-.943 0-1.414.293-1.707S21.057 36 22 36h15c.943 0 1.414 0 1.707.293S39 37.057 39 38v10c0 .943 0 1.414-.293 1.707S37.943 50 37 50H22zm0 18c-.943 0-1.414 0-1.707-.293S20 66.943 20 66V56c0-.943 0-1.414.293-1.707S21.057 54 22 54h15c.943 0 1.414 0 1.707.293S39 55.057 39 56v10c0 .943 0 1.414-.293 1.707S37.943 68 37 68H22z" fill="#8796a1"/><rect x="1" y="1" width="118" height="90" rx="3" stroke="#ccc" stroke-width="2"/></svg>
